source/images/logo-header.svg

<?xml version="1.0" encoding="UTF-8" standalone="no"?>
<svg viewBox="0 0 50 50" version="1.1" xmlns="http://www.w3.org/2000/svg" xmlns:xlink="http://www.w3.org/1999/xlink">
    <!-- Generator: Sketch 3.8.3 (29802) - http://www.bohemiancoding.com/sketch -->
    <title>Artboard 1</title>
    <desc>Created with Sketch.</desc>
    <defs></defs>
    <g id="Page-1" stroke="none" stroke-width="1" fill="none" fill-rule="evenodd">
        <g id="Artboard-1" fill="#FFFFFF">
            <path d="M38.5,13.8999998 C38.2,13.4999998 37.6,13.3999998 37.2,13.7999998 C36.8,14.0999998 36.7,14.6999998 37.1,15.0999997 C39.4,17.8999996 40.7,21.3999995 40.7,24.9999994 C40.7,29.1999993 39.1,33.0999991 36.1,35.999999 C33.1,38.8999989 29.2,40.5999989 25.1,40.5999989 C21,40.5999989 16.9,38.9999989 14,35.999999 C11.1,32.9999991 9.4,29.0999993 9.4,24.9999994 C9.4,20.2999996 11.5,15.8999997 15.1,12.8999998 C16.3,11.9999998 17,10.6999999 17,9.09999994 C17,6.50000003 14.9,4.4000001 12.3,4.4000001 C10.9,4.4000001 9.7,5.00000008 8.9,5.90000005 C3.2,10.6999999 0,17.5999997 0,24.9999994 C0,28.3999993 0.7,31.5999992 2,34.6999991 C3.3,37.699999 5.1,40.3999989 7.4,42.5999988 C9.7,44.8999987 12.4,46.6999987 15.3,47.9999986 C18.4,49.2999986 21.7,49.9999986 25,49.9999986 C28.3,49.9999986 31.6,49.2999986 34.7,47.9999986 C37.7,46.6999987 40.4,44.8999987 42.6,42.5999988 C44.9,40.2999989 46.7,37.599999 48,34.6999991 C49.3,31.5999992 50,28.2999993 50,24.9999994 C50,20.7999995 48.9,16.6999997 47,12.9999998 C46.7,12.4999998 46.4,11.9999998 46.1,11.4999999 C45.8,11.0999999 45.2,10.8999999 44.8,11.1999999 C44.4,11.4999999 44.2,12.0999998 44.5,12.4999998 C44.8,12.8999998 45.1,13.3999998 45.3,13.8999998 C45.6,14.4999998 46,15.1999997 46.2,15.7999997 C46.3,15.8999997 46.3,16.0999997 46.3,16.2999997 C46.3,16.7999997 45.9,17.1999997 45.4,17.1999997 C44.7,17.1999997 44.6,16.3999997 43.2,13.8999998 C41.3,10.6999999 38.5,8.09999997 35.3,6.30000003 C34.8,6.00000004 34.3,6.20000004 34,6.70000002 C33.7,7.2 33.9,7.69999998 34.4,7.99999997 C36.9,9.39999993 39.1,11.3999999 40.8,13.6999998 C41,13.8999998 41.1,14.0999998 41.1,14.3999998 C41.1,14.8999997 40.7,15.2999997 40.2,15.2999997 C39.9,15.2999997 39.7,15.1999997 39.5,14.9999997" id="swish"></path>
            <ellipse id="splatter" cx="35.65" cy="12.4" rx="0.9" ry="0.9"></ellipse>
        </g>
    </g>
</svg>

<svg viewBox="0 0 50 50" xmlns="http://www.w3.org/2000/svg"><title>Artboard 1</title><desc>Created with Sketch.</desc><g fill="none" fill-rule="evenodd"><g fill="#fff"><path d="M38.5 13.9c-.3-.4-.9-.5-1.3-.1-.4.3-.5.9-.1 1.3 2.3 2.8 3.6 6.3 3.6 9.9 0 4.2-1.6 8.1-4.6 11-3 2.9-6.9 4.6-11 4.6S16.9 39 14 36c-2.9-3-4.6-6.9-4.6-11 0-4.7 2.1-9.1 5.7-12.1 1.2-.9 1.9-2.2 1.9-3.8 0-2.6-2.1-4.7-4.7-4.7-1.4 0-2.6.6-3.4 1.5C3.2 10.7 0 17.6 0 25c0 3.4.7 6.6 2 9.7 1.3 3 3.1 5.7 5.4 7.9 2.3 2.3 5 4.1 7.9 5.4 3.1 1.3 6.4 2 9.7 2 3.3 0 6.6-.7 9.7-2 3-1.3 5.7-3.1 7.9-5.4 2.3-2.3 4.1-5 5.4-7.9 1.3-3.1 2-6.4 2-9.7 0-4.2-1.1-8.3-3-12l-.9-1.5c-.3-.4-.9-.6-1.3-.3s-.6.9-.3 1.3.6.9.8 1.4c.3.6.7 1.3.9 1.9.1.1.1.3.1.5 0 .5-.4.9-.9.9-.7 0-.8-.8-2.2-3.3-1.9-3.2-4.7-5.8-7.9-7.6-.5-.3-1-.1-1.3.4-.3.5-.1 1 .4 1.3 2.5 1.4 4.7 3.4 6.4 5.7.2.2.3.4.3.7 0 .5-.4.9-.9.9-.3 0-.5-.1-.7-.3"/><ellipse cx="35.65" cy="12.4" rx=".9" ry=".9"/></g></g></svg>
